X:1
T:Fopp.mid
M:4/4
L:1/8
K:C
zzzzzzzA5zzzzzA5 | zzzA5zA5zA5zA5zA5zA5zzzzzA5zz | A5zzA5zzA5zA5 | zzA5zzzzzzA5z | zzzA5A5zzzzzz | zzzzzA5zD6A5z | zG2G2zzzF2F2z | zD2D2zzzD6zD2 | D2zC2C2zD2D2z | zzzC2zC2zzzD2 | D2zzzzC2C2zzD6zzD2D2D2D2zC2C2 | zD2D2zzzzC2C2 | zG2G2zzF2F2zF2zzzD2D2D2D2C2C2 | zzD2zD2zzzC2C2zzzD2D2zzzzzzzz | C2C2zzzD2D2D2 | D2C2C2zD2D2zz | zC2C2zzzG2G2z | G2G2zzzF2F2zz | D2D2zD2D2zzC2 | C2zD2D2zzzC2C2zzD2D2zzzzzzzzz | zC2C2zzzD2D2D2D2zzzzC2zzC2D2D2zzzC2zC2zzzG2G2 | zzG2G2zzzF2F2 | zzzzD2D2D2C2D2D2zzzzzC2C2zzD2 | D2zzD2zzD2zzz | zC2C2zzD2zD2D2zD2C2C2D2D2zzzz | C2C2zzzG2G2zz | zF2F2zzD2D2zC2C2D2D2zC2zC2C2z | D2C2zzzzD2zzC2C2zzzD2D2zF2F2z | zzzD2D2zzC2C2 | zzzD2D2zC2zC2 | zzzD2D2zzC2zC2zD2D2zF2F2zzzzD2D2zzC2C2zzD2D2z | zzzD2zzD2zzC2 | C2zD2D2zzzC2C2zzD2D2zzF2F2zzz | zD2D2zzC2C2zz | A1zzzC2zzzG1z | zF1zzzD2D2zD2 | C2D2zC2zzzD2D2zzzzzzzzzzzzzzz | zzzD2D2D2D2C2 | C2D2D2zzzzC2C2zD2D2zzD2zzzzzC2C2zD2D2zD2D2C2C2D2zzD2zzzC2C2C2 | zzC2zzzzG2G2z | zzzzF2F2zzD2D2D2D2zzC2C2D2D2z | zC2C2zzzzzD2D2zzzzC2C2zD2D2zD2D2zzC2C2D2D2zzz | zzzzzzC2C2zzz | G2G2zF2F2zzzD2D2zD2D2zC2D2zzz | zzC2C2zD2D2zz | zzC2D2D2zzD2D2D2zC2C2D2zD2zzz | zzzzC2C2zzG2G2zzzF2F2zzzzzD2D2D2D2C2zzC2D2zD2 | C2zzzzzzC2C2z | zzD2D2zzzzzzC2C2zD2zD2zD2D2zC2C2zzD2D2zzzzzC2 | C2zzG2G2zF2F2 | zzD2zD2zC2zzz | D2zzC2D2D2zC2 | C2zzzD2zD2zzC2C2zzD2D2zzzF2F2 | zzzD2D2zzzD2z | zC2C2zzD2zD2C2C2zzD2D2zzzC2zC2D2D2zzF2F2zzzD2 | zF2D2zF2zzzC2 | C2zzD2D2C2C2z | zD2D2zzzC2C2z | D2D2zzF2zF2zz | zzF2F2zzD2D2C2zzC2A1zzG1zF1zz | zzzF1zzzzD2D2 | D2C2D2zC2D2zD2zzzzzzzzzzzzzzz | zD2D2zD2D2C2C2D2D2zzzzzzC2C2z | D2D2zzzzzzzC2 | C2zD2D2zD2D2C2C2zD2D2zzzzzzC2 | zC2zzG2zzG2zz | zF2zzzF2zzD2D2zD2D2zzC2C2D2D2 | zzzzzC2C2zzzz | D2D2zzzzzC2C2 | zzD2D2zD2D2zC2C2zD2D2zzzzzC2z | C2zzG2zzG2zF2 | F2zF2D2F2zzzD2D2D2C2zC2D2zD2z | zzC2C2zzzD2D2 | zzzzzzC2C2zC2 | zzC2zzzzzD2D2 | D2zD2C2zzzC2D2zD2zzC2zzC2zzzG2zG2zzzzF2F2F2zF2zzzzD2D2zD2D2C2 | zzzD2zzzzC2C2 | zzzD2D2zzzzzz | zC2zzzC2D2zD2 | zD2zD2zC2zzC2 | D2D2zzzC2zzzC2zzzG2G2zzF2F2zz | F2F2zzzzD2D2z | C2C2zzD2D2zC2 | C2zzzD2zD2zzz | C2zC2D2zD2zzz | zzzF2F2zzzD2z | D2zzC2zC2zzzD2zzD2zzzC2C2D2zz | D2zzC2zzC2zzz | zC2zzC2zzD2zD2F2F2zzzzD2zzD2z | zC2zzC2zzD2D2 | C2C2zzD2D2zzz | C2zC2zD2zzD2D2zzzF2F2zzzzzzD2 | zD2C2C2zzzzA1 | zzzG1zzzF1zzz | zF1zzzzzzD2zD2D2D2C2C2zzD2D2z | zzzzzz
